X: 173
M: C
L: 1/8
K: D
dd'c'b bagf | (ge).c.e (dc).B.A | (BGF)G E2(ef) | gece .d.c.B.A |
(dd').c'.b (ba).g.f | (ge)(ce) (dc).B.A | BGFG Ebag | fedc d2 |]
(g//a//b/) |\
(d'a).f.a (bc').e.g | (fa).d.a (ea).c.a | (fa).^g.a (da).e.a | d'b^gb abc'a |
d'afa gafg | fada ecBG | FdGd AdBd | gecA d2 |]


